images/6605130.svg

<?xml version="1.0" encoding="UTF-8"?>
<svg xmlns="http://www.w3.org/2000/svg" xmlns:xlink="http://www.w3.org/1999/xlink" width="300pt" height="300pt" viewBox="0 0 300 300" version="1.1">
<defs>
<g>
<symbol overflow="visible" id="glyph0-0">
<path style="stroke:none;" d="M 0.453125 1.59375 L 0.453125 -6.34375 L 4.953125 -6.34375 L 4.953125 1.59375 Z M 0.953125 1.09375 L 4.453125 1.09375 L 4.453125 -5.84375 L 0.953125 -5.84375 Z M 0.953125 1.09375 "/>
</symbol>
<symbol overflow="visible" id="glyph0-1">
<path style="stroke:none;" d="M 0.890625 -6.5625 L 2.078125 -6.5625 L 4.984375 -1.078125 L 4.984375 -6.5625 L 5.84375 -6.5625 L 5.84375 0 L 4.65625 0 L 1.75 -5.484375 L 1.75 0 L 0.890625 0 Z M 0.890625 -6.5625 "/>
</symbol>
<symbol overflow="visible" id="glyph0-2">
<path style="stroke:none;" d="M 0.890625 -6.5625 L 1.765625 -6.5625 L 1.765625 -3.875 L 5 -3.875 L 5 -6.5625 L 5.890625 -6.5625 L 5.890625 0 L 5 0 L 5 -3.125 L 1.765625 -3.125 L 1.765625 0 L 0.890625 0 Z M 0.890625 -6.5625 "/>
</symbol>
</g>
</defs>
<g id="surface39033">
<rect x="0" y="0" width="300" height="300" style="fill:rgb(100%,100%,100%);fill-opacity:1;stroke:none;"/>
<path style="fill:none;stroke-width:1.2;stroke-linecap:butt;stroke-linejoin:miter;stroke:rgb(0%,0%,0%);stroke-opacity:1;stroke-miterlimit:10;" d="M 213.742188 135.054688 L 230.011719 146.984375 "/>
<path style="fill:none;stroke-width:1.2;stroke-linecap:butt;stroke-linejoin:miter;stroke:rgb(0%,0%,0%);stroke-opacity:1;stroke-miterlimit:10;" d="M 230.011719 146.984375 L 248.480469 138.859375 "/>
<path style="fill:none;stroke-width:1.2;stroke-linecap:butt;stroke-linejoin:miter;stroke:rgb(0%,0%,100%);stroke-opacity:1;stroke-miterlimit:10;" d="M 227.816406 167.042969 L 228.914062 157.015625 "/>
<path style="fill:none;stroke-width:1.2;stroke-linecap:butt;stroke-linejoin:miter;stroke:rgb(0%,0%,0%);stroke-opacity:1;stroke-miterlimit:10;" d="M 228.914062 157.015625 L 230.011719 146.984375 "/>
<path style="fill:none;stroke-width:1.2;stroke-linecap:butt;stroke-linejoin:miter;stroke:rgb(0%,0%,0%);stroke-opacity:1;stroke-miterlimit:10;" d="M 248.480469 138.859375 L 264.75 150.792969 "/>
<path style="fill:none;stroke-width:1.2;stroke-linecap:butt;stroke-linejoin:miter;stroke:rgb(0%,0%,0%);stroke-opacity:1;stroke-miterlimit:10;" d="M 264.75 150.792969 L 262.554688 170.847656 "/>
<path style="fill:none;stroke-width:1.2;stroke-linecap:butt;stroke-linejoin:miter;stroke:rgb(0%,0%,0%);stroke-opacity:1;stroke-miterlimit:10;" d="M 262.554688 170.847656 L 244.085938 178.972656 "/>
<path style="fill:none;stroke-width:1.2;stroke-linecap:butt;stroke-linejoin:miter;stroke:rgb(0%,0%,0%);stroke-opacity:1;stroke-miterlimit:10;" d="M 244.085938 178.972656 L 235.949219 173.007812 "/>
<path style="fill:none;stroke-width:1.2;stroke-linecap:butt;stroke-linejoin:miter;stroke:rgb(0%,0%,100%);stroke-opacity:1;stroke-miterlimit:10;" d="M 235.949219 173.007812 L 227.816406 167.042969 "/>
<path style="fill:none;stroke-width:1.2;stroke-linecap:butt;stroke-linejoin:miter;stroke:rgb(0%,0%,100%);stroke-opacity:1;stroke-miterlimit:10;" d="M 227.816406 167.042969 L 218.582031 171.105469 "/>
<path style="fill:none;stroke-width:1.2;stroke-linecap:butt;stroke-linejoin:miter;stroke:rgb(0%,0%,0%);stroke-opacity:1;stroke-miterlimit:10;" d="M 218.582031 171.105469 L 209.347656 175.167969 "/>
<path style=" stroke:none;fill-rule:nonzero;fill:rgb(100%,100%,100%);fill-opacity:1;" d="M 224.816406 161.542969 L 231.816406 161.542969 L 231.816406 172.542969 L 224.816406 172.542969 Z M 224.816406 161.542969 "/>
<g style="fill:rgb(0%,0%,100%);fill-opacity:1;">
  <use xlink:href="#glyph0-1" x="224.816406" y="170.206055"/>
</g>
<path style="fill:none;stroke-width:1.2;stroke-linecap:butt;stroke-linejoin:miter;stroke:rgb(0%,0%,0%);stroke-opacity:1;stroke-miterlimit:10;" d="M 209.347656 175.167969 L 193.078125 163.238281 "/>
<path style="fill:none;stroke-width:1.2;stroke-linecap:butt;stroke-linejoin:miter;stroke:rgb(0%,0%,0%);stroke-opacity:1;stroke-miterlimit:10;" d="M 193.078125 163.238281 L 174.609375 171.363281 "/>
<path style="fill:none;stroke-width:1.2;stroke-linecap:butt;stroke-linejoin:miter;stroke:rgb(0%,0%,0%);stroke-opacity:1;stroke-miterlimit:10;" d="M 174.609375 171.363281 L 166.472656 165.398438 "/>
<path style="fill:none;stroke-width:1.2;stroke-linecap:butt;stroke-linejoin:miter;stroke:rgb(0%,0%,100%);stroke-opacity:1;stroke-miterlimit:10;" d="M 166.472656 165.398438 L 158.339844 159.429688 "/>
<path style="fill:none;stroke-width:1.2;stroke-linecap:butt;stroke-linejoin:miter;stroke:rgb(0%,0%,100%);stroke-opacity:1;stroke-miterlimit:10;" d="M 158.339844 159.429688 L 148.730469 162.507812 "/>
<path style="fill:none;stroke-width:1.2;stroke-linecap:butt;stroke-linejoin:miter;stroke:rgb(0%,0%,0%);stroke-opacity:1;stroke-miterlimit:10;" d="M 148.730469 162.507812 L 139.121094 165.582031 "/>
<path style="fill:none;stroke-width:1.2;stroke-linecap:butt;stroke-linejoin:miter;stroke:rgb(0%,0%,0%);stroke-opacity:1;stroke-miterlimit:10;" d="M 158.425781 139.253906 L 158.382812 149.34375 "/>
<path style="fill:none;stroke-width:1.2;stroke-linecap:butt;stroke-linejoin:miter;stroke:rgb(0%,0%,100%);stroke-opacity:1;stroke-miterlimit:10;" d="M 158.382812 149.34375 L 158.339844 159.429688 "/>
<path style=" stroke:none;fill-rule:nonzero;fill:rgb(100%,100%,100%);fill-opacity:1;" d="M 155.339844 153.929688 L 162.339844 153.929688 L 162.339844 164.929688 L 155.339844 164.929688 Z M 155.339844 153.929688 "/>
<g style="fill:rgb(0%,0%,100%);fill-opacity:1;">
  <use xlink:href="#glyph0-1" x="155.339844" y="162.592773"/>
</g>
<path style="fill:none;stroke-width:1.2;stroke-linecap:butt;stroke-linejoin:miter;stroke:rgb(0%,0%,0%);stroke-opacity:1;stroke-miterlimit:10;" d="M 139.121094 165.582031 L 127.335938 149.207031 "/>
<path style="fill:none;stroke-width:1.2;stroke-linecap:butt;stroke-linejoin:miter;stroke:rgb(0%,0%,0%);stroke-opacity:1;stroke-miterlimit:10;" d="M 134.089844 166.71875 L 124.660156 153.617188 "/>
<path style="fill:none;stroke-width:1.2;stroke-linecap:butt;stroke-linejoin:miter;stroke:rgb(0%,0%,100%);stroke-opacity:1;stroke-miterlimit:10;" d="M 130.835938 183.976562 L 134.980469 174.78125 "/>
<path style="fill:none;stroke-width:1.2;stroke-linecap:butt;stroke-linejoin:miter;stroke:rgb(0%,0%,0%);stroke-opacity:1;stroke-miterlimit:10;" d="M 134.980469 174.78125 L 139.121094 165.582031 "/>
<path style="fill:none;stroke-width:1.2;stroke-linecap:butt;stroke-linejoin:miter;stroke:rgb(0%,0%,0%);stroke-opacity:1;stroke-miterlimit:10;" d="M 127.335938 149.207031 L 107.261719 151.226562 "/>
<path style="fill:none;stroke-width:1.2;stroke-linecap:butt;stroke-linejoin:miter;stroke:rgb(0%,0%,0%);stroke-opacity:1;stroke-miterlimit:10;" d="M 127.335938 149.207031 L 133.300781 141.070312 "/>
<path style="fill:none;stroke-width:1.2;stroke-linecap:butt;stroke-linejoin:miter;stroke:rgb(0%,0%,100%);stroke-opacity:1;stroke-miterlimit:10;" d="M 133.300781 141.070312 L 139.265625 132.9375 "/>
<path style="fill:none;stroke-width:1.2;stroke-linecap:butt;stroke-linejoin:miter;stroke:rgb(0%,0%,0%);stroke-opacity:1;stroke-miterlimit:10;" d="M 107.261719 151.226562 L 103.117188 160.425781 "/>
<path style="fill:none;stroke-width:1.2;stroke-linecap:butt;stroke-linejoin:miter;stroke:rgb(0%,0%,100%);stroke-opacity:1;stroke-miterlimit:10;" d="M 103.117188 160.425781 L 98.972656 169.625 "/>
<path style="fill:none;stroke-width:1.2;stroke-linecap:butt;stroke-linejoin:miter;stroke:rgb(0%,0%,0%);stroke-opacity:1;stroke-miterlimit:10;" d="M 110.761719 155.019531 L 107.445312 162.375 "/>
<path style="fill:none;stroke-width:1.2;stroke-linecap:butt;stroke-linejoin:miter;stroke:rgb(0%,0%,100%);stroke-opacity:1;stroke-miterlimit:10;" d="M 107.445312 162.375 L 104.132812 169.734375 "/>
<path style="fill:none;stroke-width:1.2;stroke-linecap:butt;stroke-linejoin:miter;stroke:rgb(0%,0%,0%);stroke-opacity:1;stroke-miterlimit:10;" d="M 107.261719 151.226562 L 101.367188 143.039062 "/>
<path style="fill:none;stroke-width:1.2;stroke-linecap:butt;stroke-linejoin:miter;stroke:rgb(0%,0%,100%);stroke-opacity:1;stroke-miterlimit:10;" d="M 101.367188 143.039062 L 95.472656 134.855469 "/>
<path style="fill:none;stroke-width:1.2;stroke-linecap:butt;stroke-linejoin:miter;stroke:rgb(0%,0%,100%);stroke-opacity:1;stroke-miterlimit:10;" d="M 98.972656 169.625 L 104.867188 177.8125 "/>
<path style="fill:none;stroke-width:1.2;stroke-linecap:butt;stroke-linejoin:miter;stroke:rgb(0%,0%,0%);stroke-opacity:1;stroke-miterlimit:10;" d="M 104.867188 177.8125 L 110.761719 186 "/>
<path style=" stroke:none;fill-rule:nonzero;fill:rgb(100%,100%,100%);fill-opacity:1;" d="M 95.972656 164.125 L 102.972656 164.125 L 102.972656 175.125 L 95.972656 175.125 Z M 95.972656 164.125 "/>
<g style="fill:rgb(0%,0%,100%);fill-opacity:1;">
  <use xlink:href="#glyph0-1" x="95.972656" y="172.788086"/>
</g>
<path style="fill:none;stroke-width:1.2;stroke-linecap:butt;stroke-linejoin:miter;stroke:rgb(0%,0%,0%);stroke-opacity:1;stroke-miterlimit:10;" d="M 110.761719 186 L 120.796875 184.988281 "/>
<path style="fill:none;stroke-width:1.2;stroke-linecap:butt;stroke-linejoin:miter;stroke:rgb(0%,0%,100%);stroke-opacity:1;stroke-miterlimit:10;" d="M 120.796875 184.988281 L 130.835938 183.976562 "/>
<path style="fill:none;stroke-width:1.2;stroke-linecap:butt;stroke-linejoin:miter;stroke:rgb(0%,0%,0%);stroke-opacity:1;stroke-miterlimit:10;" d="M 112.292969 181.074219 L 120.324219 180.265625 "/>
<path style="fill:none;stroke-width:1.2;stroke-linecap:butt;stroke-linejoin:miter;stroke:rgb(0%,0%,100%);stroke-opacity:1;stroke-miterlimit:10;" d="M 120.324219 180.265625 L 128.351562 179.457031 "/>
<path style="fill:none;stroke-width:1.2;stroke-linecap:butt;stroke-linejoin:miter;stroke:rgb(0%,0%,0%);stroke-opacity:1;stroke-miterlimit:10;" d="M 110.761719 186 L 102.472656 204.394531 "/>
<path style=" stroke:none;fill-rule:nonzero;fill:rgb(100%,100%,100%);fill-opacity:1;" d="M 127.835938 178.476562 L 134.835938 178.476562 L 134.835938 189.476562 L 127.835938 189.476562 Z M 127.835938 178.476562 "/>
<g style="fill:rgb(0%,0%,100%);fill-opacity:1;">
  <use xlink:href="#glyph0-1" x="127.835938" y="187.139648"/>
</g>
<path style="fill:none;stroke-width:1.2;stroke-linecap:butt;stroke-linejoin:miter;stroke:rgb(0%,0%,100%);stroke-opacity:1;stroke-miterlimit:10;" d="M 95.472656 134.855469 L 85.4375 135.863281 "/>
<path style="fill:none;stroke-width:1.2;stroke-linecap:butt;stroke-linejoin:miter;stroke:rgb(0%,0%,0%);stroke-opacity:1;stroke-miterlimit:10;" d="M 85.4375 135.863281 L 75.398438 136.875 "/>
<path style=" stroke:none;fill-rule:nonzero;fill:rgb(100%,100%,100%);fill-opacity:1;" d="M 88.472656 129.355469 L 102.472656 129.355469 L 102.472656 140.355469 L 88.472656 140.355469 Z M 88.472656 129.355469 "/>
<g style="fill:rgb(0%,0%,100%);fill-opacity:1;">
  <use xlink:href="#glyph0-1" x="88.472656" y="138.018555"/>
  <use xlink:href="#glyph0-2" x="95.450195" y="138.018555"/>
</g>
<path style="fill:none;stroke-width:1.2;stroke-linecap:butt;stroke-linejoin:miter;stroke:rgb(0%,0%,0%);stroke-opacity:1;stroke-miterlimit:10;" d="M 75.398438 136.875 L 63.613281 120.5 "/>
<path style="fill:none;stroke-width:1.2;stroke-linecap:butt;stroke-linejoin:miter;stroke:rgb(0%,0%,0%);stroke-opacity:1;stroke-miterlimit:10;" d="M 67.113281 155.269531 L 75.398438 136.875 "/>
<path style="fill:none;stroke-width:1.2;stroke-linecap:butt;stroke-linejoin:miter;stroke:rgb(0%,0%,0%);stroke-opacity:1;stroke-miterlimit:10;" d="M 63.613281 120.5 L 43.539062 122.519531 "/>
<path style="fill:none;stroke-width:1.2;stroke-linecap:butt;stroke-linejoin:miter;stroke:rgb(0%,0%,0%);stroke-opacity:1;stroke-miterlimit:10;" d="M 43.539062 122.519531 L 35.25 140.917969 "/>
<path style="fill:none;stroke-width:1.2;stroke-linecap:butt;stroke-linejoin:miter;stroke:rgb(0%,0%,0%);stroke-opacity:1;stroke-miterlimit:10;" d="M 35.25 140.917969 L 47.039062 157.289062 "/>
<path style="fill:none;stroke-width:1.2;stroke-linecap:butt;stroke-linejoin:miter;stroke:rgb(0%,0%,0%);stroke-opacity:1;stroke-miterlimit:10;" d="M 47.039062 157.289062 L 67.113281 155.269531 "/>
<path style="fill:none;stroke-width:1.2;stroke-linecap:butt;stroke-linejoin:miter;stroke:rgb(0%,0%,100%);stroke-opacity:1;stroke-miterlimit:10;" d="M 139.265625 132.9375 L 148.847656 136.097656 "/>
<path style="fill:none;stroke-width:1.2;stroke-linecap:butt;stroke-linejoin:miter;stroke:rgb(0%,0%,0%);stroke-opacity:1;stroke-miterlimit:10;" d="M 148.847656 136.097656 L 158.425781 139.253906 "/>
<path style="fill:none;stroke-width:1.2;stroke-linecap:butt;stroke-linejoin:miter;stroke:rgb(0%,0%,100%);stroke-opacity:1;stroke-miterlimit:10;" d="M 139.695312 138.078125 L 147.359375 140.605469 "/>
<path style="fill:none;stroke-width:1.2;stroke-linecap:butt;stroke-linejoin:miter;stroke:rgb(0%,0%,0%);stroke-opacity:1;stroke-miterlimit:10;" d="M 147.359375 140.605469 L 155.023438 143.132812 "/>
<path style=" stroke:none;fill-rule:nonzero;fill:rgb(100%,100%,100%);fill-opacity:1;" d="M 136.265625 127.4375 L 143.265625 127.4375 L 143.265625 138.4375 L 136.265625 138.4375 Z M 136.265625 127.4375 "/>
<g style="fill:rgb(0%,0%,100%);fill-opacity:1;">
  <use xlink:href="#glyph0-1" x="136.265625" y="136.100586"/>
</g>
<path style="fill:none;stroke-width:1.2;stroke-linecap:butt;stroke-linejoin:miter;stroke:rgb(0%,0%,0%);stroke-opacity:1;stroke-miterlimit:10;" d="M 158.425781 139.253906 L 174.800781 127.46875 "/>
<path style="fill:none;stroke-width:1.2;stroke-linecap:butt;stroke-linejoin:miter;stroke:rgb(0%,0%,0%);stroke-opacity:1;stroke-miterlimit:10;" d="M 174.800781 127.46875 L 193.199219 135.753906 "/>
<path style="fill:none;stroke-width:1.2;stroke-linecap:butt;stroke-linejoin:miter;stroke:rgb(0%,0%,0%);stroke-opacity:1;stroke-miterlimit:10;" d="M 178.589844 123.96875 L 193.308594 130.597656 "/>
<path style="fill:none;stroke-width:1.2;stroke-linecap:butt;stroke-linejoin:miter;stroke:rgb(0%,0%,0%);stroke-opacity:1;stroke-miterlimit:10;" d="M 172.78125 107.394531 L 174.800781 127.46875 "/>
<path style="fill:none;stroke-width:1.2;stroke-linecap:butt;stroke-linejoin:miter;stroke:rgb(0%,0%,0%);stroke-opacity:1;stroke-miterlimit:10;" d="M 193.199219 135.753906 L 209.570312 123.96875 "/>
<path style="fill:none;stroke-width:1.2;stroke-linecap:butt;stroke-linejoin:miter;stroke:rgb(0%,0%,0%);stroke-opacity:1;stroke-miterlimit:10;" d="M 209.570312 123.96875 L 207.550781 103.894531 "/>
<path style="fill:none;stroke-width:1.2;stroke-linecap:butt;stroke-linejoin:miter;stroke:rgb(0%,0%,0%);stroke-opacity:1;stroke-miterlimit:10;" d="M 204.648438 122.4375 L 203.03125 106.375 "/>
<path style="fill:none;stroke-width:1.2;stroke-linecap:butt;stroke-linejoin:miter;stroke:rgb(0%,0%,0%);stroke-opacity:1;stroke-miterlimit:10;" d="M 207.550781 103.894531 L 189.15625 95.605469 "/>
<path style="fill:none;stroke-width:1.2;stroke-linecap:butt;stroke-linejoin:miter;stroke:rgb(0%,0%,0%);stroke-opacity:1;stroke-miterlimit:10;" d="M 189.15625 95.605469 L 172.78125 107.394531 "/>
<path style="fill:none;stroke-width:1.2;stroke-linecap:butt;stroke-linejoin:miter;stroke:rgb(0%,0%,0%);stroke-opacity:1;stroke-miterlimit:10;" d="M 190.292969 100.636719 L 177.191406 110.066406 "/>
</g>
</svg>

<svg xmlns="http://www.w3.org/2000/svg" xmlns:xlink="http://www.w3.org/1999/xlink" width="300pt" height="300pt" viewBox="0 0 300 300"><defs><symbol overflow="visible"><path d="M.453 1.594v-7.938h4.5v7.938zm.5-.5h3.5v-6.938h-3.5zm0 0"/></symbol><symbol overflow="visible" id="a"><path d="M.89-6.563H2.08l2.906 5.485v-5.484h.86V0H4.656L1.75-5.484V0H.89zm0 0"/></symbol><symbol overflow="visible" id="b"><path d="M.89-6.563h.876v2.688H5v-2.688h.89V0H5v-3.125H1.766V0H.89zm0 0"/></symbol></defs><g><path fill="#fff" d="M0 0h300v300H0z"/><path d="M213.742 135.055l16.27 11.93M230.012 146.984l18.468-8.125" stroke-width="1.2" stroke="#000" stroke-miterlimit="10" fill="none"/><path d="M227.816 167.043l1.098-10.027" stroke-width="1.2" stroke="#00f" stroke-miterlimit="10" fill="none"/><path d="M228.914 157.016l1.098-10.032M248.48 138.86l16.27 11.933M264.75 150.793l-2.195 20.055M262.555 170.848l-18.47 8.125M244.086 178.973l-8.137-5.965" stroke-width="1.2" stroke="#000" stroke-miterlimit="10" fill="none"/><path d="M235.95 173.008l-8.134-5.965M227.816 167.043l-9.234 4.062" stroke-width="1.2" stroke="#00f" stroke-miterlimit="10" fill="none"/><path d="M218.582 171.105l-9.234 4.063" stroke-width="1.2" stroke="#000" stroke-miterlimit="10" fill="none"/><path d="M224.816 161.543h7v11h-7zm0 0" fill="#fff"/><use xlink:href="#a" x="224.816" y="170.206" fill="#00f"/><path d="M209.348 175.168l-16.27-11.93M193.078 163.238l-18.47 8.125M174.61 171.363l-8.137-5.965" stroke-width="1.2" stroke="#000" stroke-miterlimit="10" fill="none"/><path d="M166.473 165.398l-8.133-5.968M158.34 159.43l-9.61 3.078" stroke-width="1.2" stroke="#00f" stroke-miterlimit="10" fill="none"/><path d="M148.73 162.508l-9.61 3.074M158.426 139.254l-.043 10.09" stroke-width="1.2" stroke="#000" stroke-miterlimit="10" fill="none"/><path d="M158.383 149.344l-.043 10.086" stroke-width="1.2" stroke="#00f" stroke-miterlimit="10" fill="none"/><path d="M155.34 153.93h7v11h-7zm0 0" fill="#fff"/><use xlink:href="#a" x="155.34" y="162.593" fill="#00f"/><path d="M139.12 165.582l-11.784-16.375M134.09 166.72l-9.43-13.103" stroke-width="1.2" stroke="#000" stroke-miterlimit="10" fill="none"/><path d="M130.836 183.977l4.144-9.196" stroke-width="1.2" stroke="#00f" stroke-miterlimit="10" fill="none"/><path d="M134.98 174.78l4.14-9.198M127.336 149.207l-20.074 2.02M127.336 149.207l5.965-8.137" stroke-width="1.2" stroke="#000" stroke-miterlimit="10" fill="none"/><path d="M133.3 141.07l5.966-8.132" stroke-width="1.2" stroke="#00f" stroke-miterlimit="10" fill="none"/><path d="M107.262 151.227l-4.145 9.2" stroke-width="1.2" stroke="#000" stroke-miterlimit="10" fill="none"/><path d="M103.117 160.426l-4.144 9.2" stroke-width="1.2" stroke="#00f" stroke-miterlimit="10" fill="none"/><path d="M110.762 155.02l-3.317 7.355" stroke-width="1.2" stroke="#000" stroke-miterlimit="10" fill="none"/><path d="M107.445 162.375l-3.312 7.36" stroke-width="1.2" stroke="#00f" stroke-miterlimit="10" fill="none"/><path d="M107.262 151.227l-5.895-8.188" stroke-width="1.2" stroke="#000" stroke-miterlimit="10" fill="none"/><path d="M101.367 143.04l-5.894-8.185M98.973 169.625l5.894 8.188" stroke-width="1.2" stroke="#00f" stroke-miterlimit="10" fill="none"/><path d="M104.867 177.813l5.895 8.187" stroke-width="1.2" stroke="#000" stroke-miterlimit="10" fill="none"/><path d="M95.973 164.125h7v11h-7zm0 0" fill="#fff"/><use xlink:href="#a" x="95.973" y="172.788" fill="#00f"/><path d="M110.762 186l10.035-1.012" stroke-width="1.2" stroke="#000" stroke-miterlimit="10" fill="none"/><path d="M120.797 184.988l10.04-1.01" stroke-width="1.2" stroke="#00f" stroke-miterlimit="10" fill="none"/><path d="M112.293 181.074l8.03-.808" stroke-width="1.2" stroke="#000" stroke-miterlimit="10" fill="none"/><path d="M120.324 180.266l8.028-.81" stroke-width="1.2" stroke="#00f" stroke-miterlimit="10" fill="none"/><path d="M110.762 186l-8.29 18.395" stroke-width="1.2" stroke="#000" stroke-miterlimit="10" fill="none"/><path d="M127.836 178.477h7v11h-7zm0 0" fill="#fff"/><use xlink:href="#a" x="127.836" y="187.14" fill="#00f"/><path d="M95.473 134.855l-10.035 1.008" stroke-width="1.2" stroke="#00f" stroke-miterlimit="10" fill="none"/><path d="M85.438 135.863l-10.04 1.012" stroke-width="1.2" stroke="#000" stroke-miterlimit="10" fill="none"/><path d="M88.473 129.355h14v11h-14zm0 0" fill="#fff"/><g fill="#00f"><use xlink:href="#a" x="88.473" y="138.019"/><use xlink:href="#b" x="95.45" y="138.019"/></g><path d="M75.398 136.875L63.613 120.5M67.113 155.27l8.285-18.395M63.613 120.5l-20.074 2.02M43.54 122.52l-8.29 18.398M35.25 140.918l11.79 16.37M47.04 157.29l20.073-2.02" stroke-width="1.2" stroke="#000" stroke-miterlimit="10" fill="none"/><path d="M139.266 132.938l9.582 3.16" stroke-width="1.2" stroke="#00f" stroke-miterlimit="10" fill="none"/><path d="M148.848 136.098l9.578 3.156" stroke-width="1.2" stroke="#000" stroke-miterlimit="10" fill="none"/><path d="M139.695 138.078l7.664 2.527" stroke-width="1.2" stroke="#00f" stroke-miterlimit="10" fill="none"/><path d="M147.36 140.605l7.663 2.528" stroke-width="1.2" stroke="#000" stroke-miterlimit="10" fill="none"/><path d="M136.266 127.438h7v11h-7zm0 0" fill="#fff"/><use xlink:href="#a" x="136.266" y="136.101" fill="#00f"/><path d="M158.426 139.254L174.8 127.47M174.8 127.47l18.4 8.284M178.59 123.97l14.72 6.628M172.78 107.395l2.02 20.074M193.2 135.754l16.37-11.785M209.57 123.97l-2.02-20.075M204.648 122.438l-1.617-16.063M207.55 103.895l-18.394-8.29M189.156 95.605l-16.375 11.79M190.293 100.637l-13.102 9.43" stroke-width="1.2" stroke="#000" stroke-miterlimit="10" fill="none"/></g></svg>
